communes/250.svg

<?xml version="1.0" encoding="UTF-8" standalone="no"?>
<svg
   xmlns:dc="http://purl.org/dc/elements/1.1/"
   xmlns:cc="http://creativecommons.org/ns#"
   xmlns:rdf="http://www.w3.org/1999/02/22-rdf-syntax-ns#"
   xmlns:svg="http://www.w3.org/2000/svg"
   xmlns="http://www.w3.org/2000/svg"
   xmlns:sodipodi="http://sodipodi.sourceforge.net/DTD/sodipodi-0.dtd"
   xmlns:inkscape="http://www.inkscape.org/namespaces/inkscape"
   version="1.0"
   width="224.50624"
   height="262.97409"
   id="svg2780"
   sodipodi:docname="250.svg">
  <metadata
     id="metadata20">
    <rdf:RDF>
      <cc:Work
         rdf:about="">
        <dc:format>image/svg+xml</dc:format>
        <dc:type
           rdf:resource="http://purl.org/dc/dcmitype/StillImage" />
      </cc:Work>
    </rdf:RDF>
  </metadata>
  <sodipodi:namedview
     pagecolor="#ffffff"
     bordercolor="#666666"
     borderopacity="1"
     objecttolerance="10"
     gridtolerance="10"
     guidetolerance="10"
     inkscape:pageopacity="0"
     inkscape:pageshadow="2"
     inkscape:window-width="640"
     inkscape:window-height="480"
     id="namedview18" />
  <defs
     id="defs2782" />
  <g
     transform="translate(-10.255265,-803.52438)"
     id="layer1">
    <path
       d="M 11.255265,804.52438 L 15.300829,974.46096 C 18.19051,1095.8443 226.82626,1095.8443 229.71595,974.46096 L 233.76151,804.52438 L 11.255265,804.52438 z "
       style="fill:#ffffff;fill-opacity:1;fill-rule:evenodd;stroke:#000000;stroke-width:2;stroke-linecap:butt;stroke-miterlimit:4;stroke-dashoffset:0;stroke-opacity:1"
       id="path3282" />
    <path
       d="M 172.71218,905.59602 C 178.21893,909.98337 179.86328,916.48881 190.22919,918.25969 C 190.01563,916.5564 188.80532,914.85312 188.21798,913.89739 C 193.36521,916.89822 197.1419,918.40393 202.91209,919.78504 C 202.10407,918.00164 200.54848,916.59204 199.61586,915.4316 C 203.71299,917.35923 210.49225,918.10141 215.33695,917.41258 C 214.25663,916.28238 213.17631,915.15218 212.096,914.27117 C 216.39071,914.29968 220.43624,913.95439 224.60636,913.48452 C 223.50466,912.22973 222.40296,910.97493 220.92749,909.96932 C 224.11337,909.35348 226.75814,907.89054 229.57025,906.27794 C 222.78256,890.30702 207.05435,875.85629 180.17314,886.732 C 179.47525,881.06848 184.3747,881.44511 190.92148,878.45049 C 197.8543,875.27929 241.22115,848.94481 206.77969,824.70878 C 225.93457,853.42885 174.78712,861.01872 125.45663,862.19086 C 76.280396,863.35934 24.399307,853.26213 39.116916,827.17561 C 7.4947012,847.71139 50.332939,873.86967 56.384744,877.56948 C 62.526991,881.32459 66.949967,881.42088 66.252074,887.0844 C 39.370871,874.62287 24.326084,889.57198 19.124213,908.00973 C 22.060918,908.75017 24.374655,909.4906 27.31136,909.10969 C 25.586694,909.74151 24.360403,910.49794 23.258707,911.75273 C 27.428829,912.2226 31.474356,913.19086 35.769072,913.16235 C 34.065783,913.79417 32.2379,914.42599 30.659205,915.80538 C 35.005529,916.61881 39.476447,916.80925 43.698177,915.62918 C 42.267181,916.91421 41.334561,918.07463 40.526535,919.85803 C 46.296729,918.47692 51.94233,917.22039 57.089554,914.21956 C 56.502213,915.17529 55.416496,917.00317 55.202936,918.70646 C 61.332661,916.93558 67.088603,915.04011 72.595358,910.65276"
       style="color:#000000;fill:#000000;fill-opacity:1;fill-rule:evenodd;stroke:#ffffff;stroke-width:0.99921262;stroke-linecap:butt;stroke-linejoin:miter;marker:none;marker-start:none;marker-mid:none;marker-end:none;stroke-miterlimit:4;stroke-dasharray:none;stroke-dashoffset:0;stroke-opacity:1;visibility:visible;display:inline;overflow:visible;enable-background:accumulate"
       id="path5082" />
    <path
       d="M 216.99819,897.30413 C 203.43061,888.31781 184.70911,897.26009 176.29545,897.30414 C 184.0924,919.19728 174.75368,940.0332 168.01394,949.10762 C 166.73648,956.94862 158.56264,983.51293 156.30427,987.33163 C 153.98531,991.25279 158.24177,1002.1836 150.13567,1015.2602 C 142.54278,1027.5089 143.82628,1032.3997 125.90663,1032.2235 C 107.86239,1032.0461 104.30292,1026.633 97.144274,1013.5763 C 89.747728,1000.0857 95.330896,989.40526 92.015181,984.98573 C 89.35272,981.43693 83.542576,961.35368 83.3437,953.51268 C 72.198903,942.85244 62.86018,917.08285 70.480931,897.65654 C 57.486009,897.9649 48.279437,889.90363 34.359453,895.1897"
       style="fill:#000000;fill-opacity:1;fill-rule:evenodd;stroke:#ffffff;stroke-width:0.99921262;stroke-linecap:round;stroke-linejoin:miter;stroke-miterlimit:4;stroke-dasharray:none;stroke-opacity:1"
       id="path4104" />
    <path
       d="M 100.43532,943.82155 C 102.02114,950.69344 102.90216,969.8995 94.444446,980.82404 C 86.783663,990.71922 83.3437,1005.6686 90.215591,1012.5405 C 97.087481,1019.4123 102.37355,1022.0554 112.76949,1019.2361 C 123.16543,1016.4169 129.33251,1018.0027 137.26161,1019.0599 C 145.19072,1020.1172 150.65298,1021.5268 156.99627,1014.4787 C 163.76552,1006.9573 164.57297,994.92022 155.41045,983.11467 C 147.07292,972.37209 147.48134,948.05041 148.89097,944.35016"
       style="opacity:1;color:#000000;fill:#000000;fill-opacity:1;fill-rule:evenodd;stroke:#ffffff;stroke-width:1px;stroke-linecap:round;stroke-linejoin:miter;marker:none;marker-start:none;marker-mid:none;marker-end:none;stroke-miterlimit:4;stroke-dasharray:none;stroke-dashoffset:0;stroke-opacity:1;visibility:visible;display:inline;overflow:visible;enable-background:accumulate"
       id="path5080" />
    <path
       d="M 113.87879,845.038 C 119.5769,840.25825 127.59068,840.97842 134.26874,845.66097 C 141.81895,842.49411 147.92805,846.24048 150.34135,849.52338 C 157.48715,848.49096 159.73164,848.28974 164.79425,852.26445 C 171.1935,853.59151 177.36567,854.9133 175.13554,865.84517 C 177.29196,869.93307 177.68302,873.54681 174.88634,876.31106 C 176.85881,880.59357 176.8421,883.16276 174.26338,886.40316 C 174.30793,890.31068 172.01766,895.16269 167.53531,895.74771 C 166.83494,899.23169 162.78799,902.92888 156.69564,901.22983 C 153.78472,905.24301 149.00467,906.4601 144.61004,904.59386 C 141.62956,908.39998 136.67066,908.81592 133.64577,907.70871 C 132.44136,909.66068 129.89303,912.65326 128.03905,912.94166 C 126.17014,913.23238 124.71655,914.81056 123.76228,916.43028 C 122.80801,914.81056 121.97739,913.60616 120.10848,913.31544 C 118.2545,913.02704 116.07995,910.90662 115.12473,909.45302 C 111.60146,909.93726 107.63931,909.52132 103.78668,906.71196 C 99.516638,907.33226 96.231723,906.48895 93.320801,902.47577 C 86.979263,902.4305 83.306099,899.1071 81.733572,895.8723 C 77.25122,895.28728 74.587166,892.55337 73.759565,887.6491 C 70.125152,885.23534 70.249248,880.62912 70.520124,875.93728 C 66.959162,873.02017 68.216457,869.38033 71.267688,865.47139 C 69.698035,856.3008 76.888079,855.15994 82.97951,853.01201 C 86.224413,848.35566 91.166985,846.22021 99.052118,847.52988 C 103.08294,845.17128 106.93474,842.21752 113.87879,845.038 z "
       style="color:#000000;fill:#000000;fill-opacity:1;fill-rule:evenodd;stroke:#ffffff;stroke-width:0.99921262;stroke-linecap:butt;stroke-linejoin:miter;marker:none;marker-start:none;marker-mid:none;marker-end:none;stroke-miterlimit:4;stroke-dasharray:none;stroke-dashoffset:0;stroke-opacity:1;visibility:visible;display:inline;overflow:visible;enable-background:accumulate"
       id="path5107" />
    <path
       d="M 84.929521,908.22868 C 82.805508,910.79012 85.264721,913.56955 87.748776,913.98763 C 90.250267,914.40866 103.98182,922.84327 103.10859,931.33256"
       style="opacity:1;color:#000000;fill:none;fill-opacity:0.75;fill-rule:evenodd;stroke:#ffffff;stroke-width:1px;stroke-linecap:round;stroke-linejoin:miter;marker:none;marker-start:none;marker-mid:none;marker-end:none;stroke-miterlimit:4;stroke-dasharray:none;stroke-dashoffset:0;stroke-opacity:1;visibility:visible;display:inline;overflow:visible;enable-background:accumulate"
       id="path5114" />
    <path
       d="M 163.01778,908.97624 C 165.14179,911.53768 163.80392,914.44171 161.56906,915.35816 C 159.22713,916.31852 150.69354,922.59408 147.57977,930.4604"
       style="opacity:1;color:#000000;fill:none;fill-opacity:0.75;fill-rule:evenodd;stroke:#ffffff;stroke-width:1px;stroke-linecap:round;stroke-linejoin:miter;marker:none;marker-start:none;marker-mid:none;marker-end:none;stroke-miterlimit:4;stroke-dasharray:none;stroke-dashoffset:0;stroke-opacity:1;visibility:visible;display:inline;overflow:visible;enable-background:accumulate"
       id="path5116" />
    <path
       d="M 102.16696,988.94391 C 118.61335,988.32094 116.05077,991.56038 124.34467,991.56038 C 132.76312,991.56038 133.44003,987.82256 145.77482,988.07175"
       style="opacity:1;color:#000000;fill:none;fill-opacity:0.75;fill-rule:evenodd;stroke:#ffffff;stroke-width:1px;stroke-linecap:round;stroke-linejoin:miter;marker:none;marker-start:none;marker-mid:none;marker-end:none;stroke-miterlimit:4;stroke-dasharray:none;stroke-dashoffset:0;stroke-opacity:1;visibility:visible;display:inline;overflow:visible;enable-background:accumulate"
       id="path5118" />
    <path
       d="M 117.99038,985.82906 C 121.35441,987.69797 128.83005,987.075 131.19733,985.57987"
       style="opacity:1;color:#000000;fill:none;fill-opacity:0.75;fill-rule:evenodd;stroke:#ffffff;stroke-width:1px;stroke-linecap:round;stroke-linejoin:miter;marker:none;marker-start:none;marker-mid:none;marker-end:none;stroke-miterlimit:4;stroke-dasharray:none;stroke-dashoffset:0;stroke-opacity:1;visibility:visible;display:inline;overflow:visible;enable-background:accumulate"
       id="path5120" />
    <path
       d="M 146.27319,997.79007 C 134.34681,1005.1757 150.55381,1016.2951 151.00776,1004.3935"
       style="opacity:1;color:#000000;fill:none;fill-opacity:0.75;fill-rule:evenodd;stroke:#ffffff;stroke-width:1px;stroke-linecap:round;stroke-linejoin:miter;marker:none;marker-start:none;marker-mid:none;marker-end:none;stroke-miterlimit:4;stroke-dasharray:none;stroke-dashoffset:0;stroke-opacity:1;visibility:visible;display:inline;overflow:visible;enable-background:accumulate"
       id="path5122" />
    <path
       d="M 100.16263,997.79007 C 115.95142,1004.3035 96.878761,1018.4132 94.929685,1006.0132"
       style="opacity:1;color:#000000;fill:none;fill-opacity:0.75;fill-rule:evenodd;stroke:#ffffff;stroke-width:1px;stroke-linecap:round;stroke-linejoin:miter;marker:none;marker-start:none;marker-mid:none;marker-end:none;stroke-miterlimit:4;stroke-dasharray:none;stroke-dashoffset:0;stroke-opacity:1;visibility:visible;display:inline;overflow:visible;enable-background:accumulate"
       id="path5124" />
    <path
       d="M 86.139705,918.37843 C 79.958886,926.87802 90.979451,932.09437 96.076982,924.19786 C 96.93425,922.86987 94.94902,921.00672 94.457261,921.97028 C 91.26108,928.23295 84.355775,924.1657 87.52902,919.52375 C 89.234508,917.02889 87.100249,917.05753 86.139705,918.37843 z "
       style="fill:#ffffff;fill-opacity:1;fill-rule:evenodd;stroke:none;stroke-width:1px;stroke-linecap:butt;stroke-linejoin:miter;stroke-opacity:1"
       id="path5126" />
    <path
       d="M 163.35189,920.49286 C 169.53271,928.99245 158.51214,934.2088 153.41461,926.31229 C 152.55734,924.9843 154.54257,923.12115 155.03433,924.08471 C 158.23051,930.34738 165.13582,926.28013 161.96257,921.63818 C 160.25708,919.14332 162.39134,919.17196 163.35189,920.49286 z "
       style="fill:#ffffff;fill-opacity:1;fill-rule:evenodd;stroke:none;stroke-width:1px;stroke-linecap:butt;stroke-linejoin:miter;stroke-opacity:1"
       id="path11915" />
  </g>
</svg>

<?xml version="1.0" encoding="UTF-8"?>
<svg version="1.0" viewBox="0 0 224.51 262.97" xmlns="http://www.w3.org/2000/svg" xmlns:cc="http://creativecommons.org/ns#" xmlns:dc="http://purl.org/dc/elements/1.1/" xmlns:rdf="http://www.w3.org/1999/02/22-rdf-syntax-ns#">
<metadata>
<rdf:RDF>
<cc:Work rdf:about="">
<dc:format>image/svg+xml</dc:format>
<dc:type rdf:resource="http://purl.org/dc/dcmitype/StillImage"/>
</cc:Work>
</rdf:RDF>
</metadata>
<g transform="translate(-10.255 -803.52)">
<path d="m11.255 804.52 4.0456 169.94c2.8897 121.38 211.53 121.38 214.42 0l4.0456-169.94h-222.51z" fill="#fff" fill-rule="evenodd" stroke="#000" stroke-width="2"/>
<path d="m172.71 905.6c5.5068 4.3874 7.1511 10.893 17.517 12.664-0.21356-1.7033-1.4239-3.4066-2.0112-4.3623 5.1472 3.0008 8.9239 4.5065 14.694 5.8876-0.80802-1.7834-2.3636-3.193-3.2962-4.3534 4.0971 1.9276 10.876 2.6698 15.721 1.981-1.0803-1.1302-2.1606-2.2604-3.241-3.1414 4.2947 0.02851 8.3402-0.31678 12.51-0.78665-1.1017-1.2548-2.2034-2.5096-3.6789-3.5152 3.1859-0.61584 5.8306-2.0788 8.6428-3.6914-6.7877-15.971-22.516-30.422-49.397-19.546-0.69789-5.6635 4.2016-5.2869 10.748-8.2815 6.9328-3.1712 50.3-29.506 15.858-53.742 19.155 28.72-31.993 36.31-81.323 37.482-49.176 1.1685-101.06-8.9287-86.34-35.015-31.622 20.536 11.216 46.694 17.268 50.394 6.1422 3.7551 10.565 3.8514 9.8673 9.5149-26.881-12.462-41.926 2.4876-47.128 20.925 2.9367 0.74044 5.2504 1.4809 8.1871 1.1-1.7247 0.63182-2.951 1.3882-4.0527 2.643 4.1701 0.46987 8.2156 1.4381 12.51 1.4096-1.7033 0.63182-3.5312 1.2636-5.1099 2.643 4.3463 0.81343 8.8172 1.0039 13.039-0.1762-1.431 1.285-2.3636 2.4454-3.1716 4.2288 5.7702-1.3811 11.416-2.6376 16.563-5.6385-0.58734 0.95573-1.6731 2.7836-1.8866 4.4869 6.1297-1.7709 11.886-3.6664 17.392-8.0537" color="#000000" fill-rule="evenodd" stroke="#fff" stroke-width=".99921"/>
<path d="m217 897.3c-13.568-8.9863-32.289-0.04404-40.703 1e-5 7.797 21.893-1.5418 42.729-8.2815 51.803-1.2775 7.841-9.4513 34.405-11.71 38.224-2.319 3.9212 1.9375 14.852-6.1686 27.929-7.5929 12.249-6.3094 17.14-24.229 16.963-18.044-0.1774-21.604-5.5905-28.762-18.647-7.3965-13.491-1.8134-24.171-5.1291-28.591-2.6625-3.5488-8.4726-23.632-8.6715-31.473-11.145-10.66-20.484-36.43-12.863-55.856-12.995 0.30836-22.201-7.7529-36.121-2.4668" fill-rule="evenodd" stroke="#fff" stroke-linecap="round" stroke-width=".99921"/>
<path d="m100.44 943.82c1.5858 6.8719 2.4668 26.078-5.9909 37.002-7.6608 9.8952-11.101 24.845-4.2289 31.716 6.8719 6.8718 12.158 9.5149 22.554 6.6956 10.396-2.8192 16.563-1.2334 24.492-0.1762 7.9291 1.0573 13.391 2.4669 19.735-4.5812 6.7692-7.5214 7.5767-19.558-1.5858-31.364-8.3375-10.743-7.9291-35.064-6.5195-38.765" color="#000000" fill-rule="evenodd" stroke="#fff" stroke-linecap="round" stroke-width="1px"/>
<path d="m113.88 845.04c5.6981-4.7798 13.712-4.0596 20.39 0.62297 7.5502-3.1669 13.659 0.57951 16.073 3.8624 7.1458-1.0324 9.3903-1.2336 14.453 2.7411 6.3992 1.3271 12.571 2.6488 10.341 13.581 2.1564 4.0879 2.5475 7.7016-0.2492 10.466 1.9725 4.2825 1.9558 6.8517-0.62296 10.092 0.04455 3.9075-2.2457 8.7595-6.7281 9.3446-0.70037 3.484-4.7473 7.1812-10.84 5.4821-2.9109 4.0132-7.691 5.2303-12.086 3.364-2.9805 3.8061-7.9394 4.2221-10.964 3.1148-1.2044 1.952-3.7527 4.9446-5.6067 5.233-1.8689 0.29072-3.3225 1.8689-4.2768 3.4886-0.95427-1.6197-1.7849-2.8241-3.6538-3.1148-1.854-0.2884-4.0285-2.4088-4.9838-3.8624-3.5233 0.48424-7.4854 0.0683-11.338-2.7411-4.27 0.6203-7.555-0.22301-10.466-4.2362-6.3415-0.04527-10.015-3.3687-11.587-6.6035-4.4824-0.58502-7.1464-3.3189-7.974-8.2232-3.6344-2.4138-3.5103-7.02-3.2394-11.712-3.561-2.9171-2.3037-6.557 0.74756-10.466-1.5697-9.1706 5.6204-10.311 11.712-12.459 3.2449-4.6564 8.1875-6.7918 16.073-5.4821 4.0308-2.3586 7.8826-5.3124 14.827-2.4919z" color="#000000" fill-rule="evenodd" stroke="#fff" stroke-width=".99921"/>
<path d="m84.93 908.23c-2.124 2.5614 0.3352 5.3409 2.8193 5.759 2.5015 0.42103 16.233 8.8556 15.36 17.345" color="#000000" fill="none" stroke="#fff" stroke-linecap="round" stroke-width="1px"/>
<path d="m163.02 908.98c2.124 2.5614 0.78614 5.4655-1.4487 6.3819-2.3419 0.96036-10.876 7.2359-13.989 15.102" color="#000000" fill="none" stroke="#fff" stroke-linecap="round" stroke-width="1px"/>
<path d="m102.17 988.94c16.446-0.62297 13.884 2.6165 22.178 2.6165 8.4184 0 9.0954-3.7378 21.43-3.4886" color="#000000" fill="none" stroke="#fff" stroke-linecap="round" stroke-width="1px"/>
<path d="m117.99 985.83c3.364 1.8689 10.84 1.2459 13.207-0.24919" color="#000000" fill="none" stroke="#fff" stroke-linecap="round" stroke-width="1px"/>
<path d="m146.27 997.79c-11.926 7.3856 4.2806 18.505 4.7346 6.6034" color="#000000" fill="none" stroke="#fff" stroke-linecap="round" stroke-width="1px"/>
<path d="m100.16 997.79c15.789 6.5134-3.2839 20.623-5.2329 8.2231" color="#000000" fill="none" stroke="#fff" stroke-linecap="round" stroke-width="1px"/>
<path d="m86.14 918.38c-6.1808 8.4996 4.8397 13.716 9.9373 5.8194 0.85727-1.328-1.128-3.1911-1.6197-2.2276-3.1962 6.2627-10.101 2.1954-6.9282-2.4465 1.7055-2.4949-0.42877-2.4662-1.3893-1.1453z" fill="#fff" fill-rule="evenodd"/>
<path d="m163.35 920.49c6.1808 8.4996-4.8398 13.716-9.9373 5.8194-0.85727-1.328 1.128-3.1911 1.6197-2.2276 3.1962 6.2627 10.101 2.1954 6.9282-2.4465-1.7055-2.4949 0.42877-2.4662 1.3893-1.1453z" fill="#fff" fill-rule="evenodd"/>
</g>
</svg>
